X:7
T:Hobed o Hilion - A Bushel of Siftings
M:3/4
L:1/8
Q:200
C:Trad. arr. J.T.
R:Waltz
N:Slightly compressed
K:D
F2 | B3 c d2 | F2 F2 FG | A2 A2 B2 | E4 DE | F2 FE DE|
F2 FE DE | F2 B2 c2|1 B4 :|2 B6 ||
d4 cd | B2 F2 D2 | d4 cd | B2 F2 D2 | D3 E FD | E4 E2|
D3 E FD | E2 F2 A2| B2 B2 A2 | F4 DE | F2 FE DE | F2 FE DE | F2 B2 c2
|1 B6 :|2 B4 ||
